icons/link-external-17.svg

<svg width="16" height="17" viewBox="0 0 16 17" fill="none" xmlns="http://www.w3.org/2000/svg">
<path fill-rule="evenodd" clip-rule="evenodd" d="M9.94178 2.20044H13.7692C13.8967 2.20044 14 2.30376 14 2.43121V6.2587C14 6.46429 13.7514 6.56726 13.606 6.42187L12.1818 4.99767L8.7203 8.45921C8.44994 8.72957 8.01159 8.72957 7.74123 8.45921C7.47087 8.18885 7.47087 7.75049 7.74123 7.48013L11.2028 4.0186L9.77858 2.59439C9.6332 2.44901 9.73612 2.20044 9.94178 2.20044ZM3.61538 3.12352C2.72323 3.12352 2 3.84675 2 4.7389V12.5851C2 13.4772 2.72323 14.2004 3.61538 14.2004H11.4615C12.3537 14.2004 13.0769 13.4772 13.0769 12.5851V9.35429C13.0769 8.97194 12.767 8.66198 12.3846 8.66198C12.0023 8.66198 11.6923 8.97194 11.6923 9.35429V12.5851C11.6923 12.7125 11.589 12.8158 11.4615 12.8158H3.61538C3.48794 12.8158 3.38462 12.7125 3.38462 12.5851V4.7389C3.38462 4.61145 3.48794 4.50813 3.61538 4.50813H6.84615C7.2285 4.50813 7.53846 4.19817 7.53846 3.81582C7.53846 3.43348 7.2285 3.12352 6.84615 3.12352H3.61538Z" fill="#272431"/>
</svg>

<svg xmlns="http://www.w3.org/2000/svg" width="16" height="17" viewBox="0 0 16 17"><path fill-rule="evenodd" d="M9.942 2.2h3.827a.23.23 0 01.231.231V6.26a.23.23 0 01-.394.163l-1.424-1.424-3.462 3.46a.692.692 0 01-.979-.979l3.462-3.461-1.424-1.425a.23.23 0 01.163-.394zm-6.327.924C2.723 3.124 2 3.847 2 4.739v7.846c0 .892.723 1.615 1.615 1.615h7.846c.893 0 1.616-.723 1.616-1.615v-3.23a.692.692 0 10-1.385 0v3.23a.23.23 0 01-.23.23H3.614a.23.23 0 01-.23-.23V4.74a.23.23 0 01.23-.23h3.231a.692.692 0 000-1.385h-3.23z"/></svg>
